X: 414
T: Bile Them Cabbage Down
B: jims roots
M:2/4
L:1/8
Q: 1/4=100
K:D
V:1 
%Z:Nigel Gatherer
de | "D"f2f2 fdfd | [d3f3][df]-[d2f2]gf | f2f2 fdfd | "A"[c3e3][ce] [c2e2]de |
"D"f2f2 fdfd | "G"gagf g2fg | "A"a2a2 f2e2 | "D"dfed [d2f2] :|
% abcbook-tune_id 6298c245ee21143dccfccaf1


% abcbook-boost 0
% abcbook-tablature 
% abcbook-transpose 
% abcbook-lastupdated 1654178373430
% abcbook-soundfonts 
% abcbook-repeats 1


